assets/icons/24px/stroke/arrow-circle-forward-ten-24px.svg

<svg width="24" height="24" viewBox="0 0 24 24" fill="none" xmlns="http://www.w3.org/2000/svg">
<path fill-rule="evenodd" clip-rule="evenodd" d="M16.1135 2.30587C16.4969 1.90831 17.1299 1.89679 17.5275 2.28015L20.1941 4.85152C20.3896 5.03999 20.5 5.29984 20.5 5.57136C20.5 5.84288 20.3896 6.10273 20.1941 6.2912L17.5275 8.86271C17.13 9.24608 16.4969 9.23458 16.1135 8.83703C15.7302 8.43948 15.7417 7.80642 16.1392 7.42305L17.0224 6.57137L12.5 6.57136C8.56459 6.57136 5.5 9.24909 5.5 13.2857C5.5 17.3223 8.56459 20 12.5 20C16.2946 20 18.8778 17.0681 18.8778 13.2857C18.8778 12.7334 19.3255 12.2857 19.8778 12.2857C20.4301 12.2857 20.8778 12.7334 20.8778 13.2857C20.8778 18.0243 17.542 22 12.5 22C7.59886 22 3.5 18.5607 3.5 13.2857C3.5 8.01062 7.59886 4.57136 12.5 4.57136L17.0223 4.57137L16.1392 3.71985C15.7417 3.33649 15.7301 2.70343 16.1135 2.30587Z" fill="white"/>
<path fill-rule="evenodd" clip-rule="evenodd" d="M10.6913 10.0381C10.8782 10.1155 11 10.2978 11 10.5V16.5C11 16.7762 10.7761 17 10.5 17C10.2239 17 10 16.7762 10 16.5V11.7071L9.35355 12.3536C9.15829 12.5488 8.84171 12.5488 8.64645 12.3536C8.45118 12.1583 8.45118 11.8417 8.64645 11.6465L10.1464 10.1465C10.2894 10.0035 10.5045 9.96068 10.6913 10.0381ZM13.3146 11.3718C13.1283 11.7154 13 12.3557 13 13.5C13 14.6443 13.1283 15.2847 13.3146 15.6282C13.3999 15.7857 13.4906 15.8675 13.5804 15.9157C13.6749 15.9665 13.806 16 14 16C14.1816 16 14.3083 15.9637 14.4029 15.9081C14.4963 15.8532 14.5926 15.7594 14.6823 15.5886C14.8732 15.2248 15 14.5777 15 13.5C15 12.4223 14.8732 11.7752 14.6823 11.4114C14.5926 11.2406 14.4963 11.1469 14.4029 11.0919C14.3083 11.0363 14.1816 11 14 11C13.806 11 13.6749 11.0335 13.5804 11.0843C13.4906 11.1325 13.3999 11.2143 13.3146 11.3718ZM13.1071 10.2034C13.3876 10.0527 13.694 10 14 10C14.3184 10 14.6292 10.065 14.9096 10.2298C15.1912 10.3953 15.4074 10.6411 15.5677 10.9467C15.8768 11.5355 16 12.3884 16 13.5C16 14.6116 15.8768 15.4645 15.5677 16.0534C15.4074 16.3589 15.1912 16.6047 14.9096 16.7702C14.6292 16.935 14.3184 17 14 17C13.694 17 13.3876 16.9474 13.1071 16.7967C12.8219 16.6434 12.6001 16.4085 12.4354 16.1048C12.1217 15.5261 12 14.6664 12 13.5C12 12.3336 12.1217 11.474 12.4354 10.8952C12.6001 10.5915 12.8219 10.3566 13.1071 10.2034Z" fill="white"/>
</svg>

<svg width="24" height="24" fill="none" xmlns="http://www.w3.org/2000/svg"><path fill-rule="evenodd" clip-rule="evenodd" d="M16.113 2.306a1 1 0 0 1 1.415-.026l2.666 2.572a1 1 0 0 1 0 1.44l-2.666 2.57a1 1 0 0 1-1.389-1.439l.883-.852H12.5c-3.935 0-7 2.678-7 6.715 0 4.036 3.065 6.714 7 6.714 3.795 0 6.378-2.932 6.378-6.714a1 1 0 1 1 2 0c0 4.738-3.336 8.714-8.378 8.714-4.901 0-9-3.44-9-8.714 0-5.275 4.099-8.715 9-8.715h4.522l-.883-.851a1 1 0 0 1-.026-1.414z" fill="#fff"/><path fill-rule="evenodd" clip-rule="evenodd" d="M10.691 10.038A.5.5 0 0 1 11 10.5v6a.5.5 0 1 1-1 0v-4.793l-.646.647a.5.5 0 0 1-.708-.707l1.5-1.5a.5.5 0 0 1 .545-.109zm2.624 1.334c-.187.343-.315.984-.315 2.128 0 1.144.128 1.785.315 2.128a.66.66 0 0 0 .265.288c.095.05.226.084.42.084a.775.775 0 0 0 .403-.092.758.758 0 0 0 .28-.32c.19-.363.317-1.01.317-2.088s-.127-1.725-.318-2.089a.758.758 0 0 0-.28-.32A.775.775 0 0 0 14 11a.873.873 0 0 0-.42.084.66.66 0 0 0-.265.288zm-.208-1.169c.28-.15.587-.203.893-.203.318 0 .63.065.91.23.281.165.497.411.658.717.309.589.432 1.441.432 2.553 0 1.112-.123 1.964-.432 2.553a1.75 1.75 0 0 1-.658.717c-.28.165-.592.23-.91.23a1.86 1.86 0 0 1-.893-.203 1.656 1.656 0 0 1-.672-.692C12.122 15.526 12 14.666 12 13.5s.122-2.026.435-2.605c.165-.303.387-.538.672-.692z" fill="#fff"/></svg>
